components/Common/Svg/svgs/creatingOwnApps.svg

<svg
  width="40"
  height="40"
  viewBox="0 0 40 40"
  fill="none"
  xmlns="http://www.w3.org/2000/svg"
>
  <path
    d="M15.6358 3.875H6.90896C5.23555 3.875 3.875 5.23555 3.875 6.90896V15.6358C3.875 17.3091 5.23555 18.6697 6.90896 18.6697H15.6358C17.3091 18.6697 18.6697 17.3092 18.6697 15.6358V6.90896C18.6696 5.23555 17.3091 3.875 15.6358 3.875ZM16.9652 15.6358C16.9652 16.3685 16.3685 16.9652 15.6358 16.9652H6.90896C6.17622 16.9652 5.57951 16.3685 5.57951 15.6358V6.90896C5.57951 6.17622 6.17622 5.57951 6.90896 5.57951H15.6358C16.3685 5.57951 16.9652 6.17622 16.9652 6.90896V15.6358Z"
    fill="#161616"
    stroke="#161616"
    stroke-width="0.25"
  ></path>
  <path
    d="M33.0928 3.875H24.366C22.6926 3.875 21.332 5.23555 21.332 6.90896V15.6358C21.332 17.3091 22.6926 18.6697 24.366 18.6697H33.0928C34.7661 18.6697 36.1267 17.3092 36.1267 15.6358V6.90896C36.1267 5.23555 34.7661 3.875 33.0928 3.875ZM34.4222 15.6358C34.4222 16.3685 33.8255 16.9652 33.0928 16.9652H24.366C23.6332 16.9652 23.0365 16.3685 23.0365 15.6358V6.90896C23.0365 6.17622 23.6332 5.57951 24.366 5.57951H33.0928C33.8255 5.57951 34.4222 6.17622 34.4222 6.90896V15.6358Z"
    fill="#161616"
    stroke="#161616"
    stroke-width="0.25"
  ></path>
  <path
    d="M15.6358 21.3289H6.90896C5.23555 21.3289 3.875 22.6894 3.875 24.3628V33.0896C3.875 34.7629 5.23555 36.1236 6.90896 36.1236H15.6358C17.3091 36.1236 18.6697 34.763 18.6697 33.0896V24.3628C18.6696 22.6894 17.3091 21.3289 15.6358 21.3289ZM16.9652 33.0896C16.9652 33.8224 16.3685 34.4191 15.6358 34.4191H6.90896C6.17622 34.4191 5.57951 33.8224 5.57951 33.0896V24.3628C5.57951 23.6301 6.17622 23.0334 6.90896 23.0334H15.6358C16.3685 23.0334 16.9652 23.6301 16.9652 24.3628V33.0896Z"
    fill="#161616"
    stroke="#161616"
    stroke-width="0.25"
  ></path>
  <path
    d="M32.3591 27.8738H29.5751V25.0898C29.5751 24.6188 29.1939 24.2375 28.7228 24.2375C28.2518 24.2375 27.8706 24.6188 27.8706 25.0898V27.8738H25.0866C24.6156 27.8738 24.2344 28.255 24.2344 28.726C24.2344 29.197 24.6156 29.5783 25.0866 29.5783H27.8707V32.3622C27.8707 32.8332 28.2519 33.2144 28.7229 33.2144C29.1939 33.2144 29.5752 32.8332 29.5752 32.3622V29.5782H32.3591C32.8301 29.5782 33.2113 29.197 33.2113 28.726C33.2113 28.255 32.8301 27.8738 32.3591 27.8738Z"
    fill="#161616"
    stroke="#161616"
    stroke-width="0.25"
  ></path>
</svg>

<svg width="40" height="40" viewBox="0 0 40 40" fill="none" xmlns="http://www.w3.org/2000/svg"><path d="M15.636 3.875H6.909a3.037 3.037 0 0 0-3.034 3.034v8.727a3.037 3.037 0 0 0 3.034 3.034h8.727a3.037 3.037 0 0 0 3.034-3.034V6.909a3.037 3.037 0 0 0-3.034-3.034Zm1.33 11.76c0 .734-.598 1.33-1.33 1.33H6.909c-.733 0-1.33-.596-1.33-1.33V6.91c0-.733.597-1.33 1.33-1.33h8.727c.733 0 1.33.597 1.33 1.33v8.727ZM33.093 3.875h-8.727a3.037 3.037 0 0 0-3.034 3.034v8.727a3.037 3.037 0 0 0 3.034 3.034h8.727a3.037 3.037 0 0 0 3.034-3.034V6.909a3.037 3.037 0 0 0-3.034-3.034Zm1.33 11.76c0 .734-.598 1.33-1.33 1.33h-8.727c-.733 0-1.33-.596-1.33-1.33V6.91c0-.733.597-1.33 1.33-1.33h8.727c.732 0 1.33.597 1.33 1.33v8.727ZM15.636 21.329H6.909a3.037 3.037 0 0 0-3.034 3.034v8.727a3.037 3.037 0 0 0 3.034 3.034h8.727a3.037 3.037 0 0 0 3.034-3.034v-8.727a3.037 3.037 0 0 0-3.034-3.034Zm1.33 11.76c0 .733-.598 1.33-1.33 1.33H6.909c-.733 0-1.33-.597-1.33-1.33v-8.726c0-.733.597-1.33 1.33-1.33h8.727c.733 0 1.33.597 1.33 1.33v8.727ZM32.36 27.874h-2.785V25.09a.852.852 0 1 0-1.704 0v2.784h-2.784a.852.852 0 1 0 0 1.704h2.784v2.784a.852.852 0 1 0 1.704 0v-2.784h2.784a.852.852 0 1 0 0-1.704Z" fill="#161616" stroke="#161616" stroke-width=".25"/></svg>
